src/assets/selectIconsSpells/tempo_1.svg

<svg xmlns="http://www.w3.org/2000/svg" viewBox="0 0 512 512"><path d="M0 0h512v512H0z"/><path fill="#fff" d="M208.242 24.629l-52.058 95.205 95.207 52.059 17.271-31.586-42.424-23.198A143.26 143.26 0 0 1 256 114c78.638 0 142 63.362 142 142s-63.362 142-142 142-142-63.362-142-142c0-16.46 2.785-32.247 7.896-46.928l-32.32-16.16C82.106 212.535 78 233.798 78 256c0 98.093 79.907 178 178 178s178-79.907 178-178S354.093 78 256 78c-13.103 0-25.875 1.44-38.18 4.148l22.008-40.25-31.586-17.27zm104.27 130.379L247 253.275V368h18V258.725l62.488-93.733-14.976-9.984z"/></svg>

<?xml version="1.0" encoding="UTF-8" standalone="no"?>
<!DOCTYPE svg PUBLIC "-//W3C//DTD SVG 1.1//EN" "http://www.w3.org/Graphics/SVG/1.1/DTD/svg11.dtd">
<svg width="100%" height="100%" viewBox="0 0 512 512" version="1.1" xmlns="http://www.w3.org/2000/svg" xmlns:xlink="http://www.w3.org/1999/xlink" xml:space="preserve" xmlns:serif="http://www.serif.com/" style="fill-rule:evenodd;clip-rule:evenodd;stroke-linejoin:round;stroke-miterlimit:2;">
    <rect x="0" y="0" width="512" height="512" style="fill-rule:nonzero;"/>
    <path d="M208.242,24.629L156.184,119.834L251.391,171.893L268.662,140.307L226.238,117.109C236.023,115.037 245.998,113.995 256,114C334.638,114 398,177.362 398,256C398,334.638 334.638,398 256,398C177.362,398 114,334.638 114,256C114,239.54 116.785,223.753 121.896,209.072L89.576,192.912C82.106,212.535 78,233.798 78,256C78,354.093 157.907,434 256,434C354.093,434 434,354.093 434,256C434,157.907 354.093,78 256,78C242.897,78 230.125,79.44 217.82,82.148L239.828,41.898L208.242,24.628L208.242,24.629Z" style="fill:rgb(221,93,93);fill-rule:nonzero;"/>
    <path d="M312.512,155.008L327.488,164.992L265,258.725L265,368L247,368L247,253.275L312.512,155.008Z" style="fill:white;"/>
</svg>
